X:128
T:Mrs. Wilson
R:Reel
S:MacDonald - Skye Collection
N:pg.136
M:C
L:1/8
K:B_
d|B2 FB DBFd|B2 (G/F/E/D/) DCCd|B2 FB DBFB|(E/F/G) F>D B,3d|B2 FB DBFd|
B2 (G/F/E/D/) ECCd|B2 FB DBFB|egf>d B3||b|f2 df Bfdb|f2 (e/d/c/B/) A c2 b|
F2 df Bfdf|bgfd B3b|f2 df Bfdb|f2 (e/d/c/B/) A c2 e|(3dcB (3cBA (3BAG (3FED|
(E/F/G) F>D B,3||
